X:1220
T: Duffy's
T: R\'il U\'i Dhufaigh
S: B.Breathnach:"Ceol Rince na hEireann" IV/171
Z: B.Black
L: 1/8
M: 4/4
R: reel
K: D
de|fB (3BBB Bcde|faed cdeg|fB (3BBB Bcdf|ecac B2 ag|
fB (3BBB Bcde|faed cdeg|fB (3cBA Bcdf|ecac B2 ||
BA|FABc dcdA|FABd cABA|FADB dcdf|ecac (3BBB BA|
FABc dcdA|FABd cABc|d2 fd cdec|(3BBB BA Bc ||
